public/images/case-studies/megalot/feature4.svg

<svg width="64" height="65" viewBox="0 0 64 65" fill="none" xmlns="http://www.w3.org/2000/svg">
<g clip-path="url(#clip0)">
<path fill-rule="evenodd" clip-rule="evenodd" d="M56.7742 0.317383C60.7587 0.317383 64 3.55971 64 7.54319C64 11.1757 61.3027 14.1827 57.8064 14.6864V34.929C61.5773 37.9587 64 42.5997 64 47.8013C64 56.9078 56.5905 64.3174 47.4839 64.3174C38.7262 64.3174 31.5572 57.4591 31.0204 48.8335H0V7.54319H49.5484C49.5484 3.55971 52.7897 0.317383 56.7742 0.317383ZM61.9355 7.54319C61.9355 4.69725 59.6201 2.3819 56.7742 2.3819C53.9283 2.3819 51.6129 4.69725 51.6129 7.54319C51.6129 10.3891 53.9283 12.7045 56.7742 12.7045C59.6201 12.7045 61.9355 10.3891 61.9355 7.54319ZM31.8049 42.64C32.129 41.6573 32.5378 40.7148 33.0323 39.8229C33.8581 38.6274 34.7527 37.3855 35.0968 36.914C38.1254 33.4714 42.5497 31.2851 47.4839 31.2851C50.4939 31.2851 53.3089 32.1078 55.7419 33.521V14.6874C54.5208 14.5109 53.3997 14.0309 52.4552 13.3228L46.1409 19.6361C46.335 20.0397 46.4516 20.4856 46.4516 20.9625C46.4516 22.6699 45.0622 24.0593 43.3548 24.0593C41.6475 24.0593 40.2581 22.6699 40.2581 20.9625C40.2581 20.4856 40.3747 20.0397 40.5677 19.6351L38.4877 17.5551C38.0841 17.7491 37.6382 17.8658 37.1613 17.8658C36.6844 17.8658 36.2384 17.7491 35.8338 17.5561L30.657 22.7329C30.8511 23.1365 30.9677 23.5824 30.9677 24.0593C30.9677 25.7667 29.5783 27.1561 27.871 27.1561C26.1636 27.1561 24.7742 25.7667 24.7742 24.0593C24.7742 22.352 26.1636 20.9625 27.871 20.9625C28.3479 20.9625 28.7938 21.0792 29.1985 21.2722L34.3752 16.0954C34.1812 15.6918 34.0645 15.2459 34.0645 14.769C34.0645 13.0616 35.4539 11.6722 37.1613 11.6722C38.8686 11.6722 40.2581 13.0616 40.2581 14.769C40.2581 15.2459 40.1414 15.6918 39.9484 16.0965L42.0284 18.1765C42.432 17.9824 42.8779 17.8658 43.3548 17.8658C43.8317 17.8658 44.2777 17.9824 44.6823 18.1765L50.9956 11.8632C50.4919 11.1902 50.0996 10.4314 49.8529 9.60771H2.06452V46.769H31.0204C31.0637 46.0691 31.1412 45.3785 31.2692 44.7045L31.8049 42.64ZM46.4516 33.4023C38.9646 33.9349 33.0323 40.1811 33.0323 47.8013C33.0323 50.0629 33.569 52.1976 34.5001 54.1053L35.5221 55.8993C38.1234 59.7311 42.5146 62.2529 47.4839 62.2529C52.4532 62.2529 56.8444 59.7311 59.4457 55.8993L60.4676 54.1053C61.3987 52.1976 61.9355 50.0629 61.9355 47.8013C61.9355 40.1811 56.0031 33.9349 48.5161 33.4023H46.4516ZM44.3871 20.9625C44.3871 20.3927 43.9236 19.9303 43.3548 19.9303C42.7861 19.9303 42.3226 20.3927 42.3226 20.9625C42.3226 21.5324 42.7861 21.9948 43.3548 21.9948C43.9236 21.9948 44.3871 21.5324 44.3871 20.9625ZM37.1613 13.7367C36.5925 13.7367 36.129 14.1992 36.129 14.769C36.129 15.3388 36.5925 15.8013 37.1613 15.8013C37.7301 15.8013 38.1935 15.3388 38.1935 14.769C38.1935 14.1992 37.7301 13.7367 37.1613 13.7367ZM27.871 25.0916C28.4397 25.0916 28.9032 24.6291 28.9032 24.0593C28.9032 23.4895 28.4397 23.0271 27.871 23.0271C27.3022 23.0271 26.8387 23.4895 26.8387 24.0593C26.8387 24.6291 27.3022 25.0916 27.871 25.0916Z" fill="#7F8284"/>
<g clip-path="url(#clip1)">
<path d="M52.7082 44.4851V39.5257C52.7082 36.6497 50.3769 34.3174 47.4998 34.3174C44.6217 34.3174 42.2915 36.6497 42.2915 39.5257V44.4851C40.3884 46.0122 39.1665 48.3538 39.1665 50.984C39.1665 55.5861 42.8978 59.3174 47.4998 59.3174C52.1019 59.3174 55.8332 55.5861 55.8332 50.984C55.8332 48.3538 54.6113 46.0122 52.7082 44.4851ZM44.3748 39.5257C44.3748 37.8028 45.7769 36.4007 47.4998 36.4007C49.2228 36.4007 50.6248 37.8028 50.6248 39.5257V43.2622C49.6592 42.8705 48.6061 42.6507 47.4998 42.6507C46.3936 42.6507 45.3405 42.8705 44.3748 43.2622V39.5257ZM47.4998 57.234C44.053 57.234 41.2498 54.4309 41.2498 50.984C41.2498 47.5372 44.053 44.734 47.4998 44.734C50.9467 44.734 53.7498 47.5372 53.7498 50.984C53.7498 54.4309 50.9467 57.234 47.4998 57.234ZM49.5832 50.984C49.5832 52.134 48.6498 53.0674 47.4998 53.0674C46.3498 53.0674 45.4165 52.134 45.4165 50.984C45.4165 49.834 46.3498 48.9007 47.4998 48.9007C48.6498 48.9007 49.5832 49.834 49.5832 50.984Z" fill="#FF6B00"/>
</g>
<path d="M5.19311 43.3174H21.7472C22.4072 43.3174 23 42.7111 23 41.9906V40.3413C22.9841 35.3405 19.2573 31.3006 14.6754 31.3174H12.2644C7.71095 31.3057 4.01075 35.3257 4.00001 40.2965V41.9906C3.99721 42.7146 4.52934 43.3067 5.19311 43.3174ZM6.38995 40.3413C6.39275 36.8008 9.02074 33.9307 12.2644 33.9261H14.6754C17.9158 33.9261 20.6101 36.8043 20.6101 40.3413V40.7087H6.38995V40.3413Z" fill="#7F8284"/>
<path d="M13.4997 29.3174C17.0899 29.3174 20 26.4073 20 22.8171C20 19.2275 17.0899 16.3174 13.4997 16.3174C9.91013 16.3174 7 19.2275 7 22.8171C7 26.4073 9.91013 29.3174 13.4997 29.3174ZM13.4997 18.9273C15.6483 18.9273 17.3901 20.6686 17.3901 22.8171C17.3901 24.9657 15.6483 26.7075 13.4997 26.7075C11.3512 26.7075 9.60989 24.9657 9.60989 22.8171C9.60989 20.6686 11.3512 18.9273 13.4997 18.9273Z" fill="#7F8284"/>
</g>
<defs>
<clipPath id="clip0">
<rect width="64" height="64" fill="white" transform="translate(0 0.317383)"/>
</clipPath>
<clipPath id="clip1">
<rect width="25" height="25" fill="white" transform="translate(35 34.3174)"/>
</clipPath>
</defs>
</svg>

<svg xmlns="http://www.w3.org/2000/svg" width="64" height="65" fill="none" xmlns:v="https://vecta.io/nano"><g clip-path="url(#A)"><path fill-rule="evenodd" d="M56.774.317C60.759.317 64 3.56 64 7.543c0 3.633-2.697 6.64-6.194 7.143v20.243C61.577 37.959 64 42.6 64 47.801a16.54 16.54 0 0 1-16.516 16.516c-8.758 0-15.927-6.858-16.463-15.484H0V7.543h49.548c0-3.983 3.241-7.226 7.226-7.226zm5.161 7.226a5.17 5.17 0 0 0-5.161-5.161 5.17 5.17 0 0 0-5.161 5.161 5.17 5.17 0 0 0 5.161 5.161 5.17 5.17 0 0 0 5.161-5.161zM31.805 42.64c.324-.983.733-1.925 1.227-2.817l2.065-2.909c3.029-3.443 7.453-5.629 12.387-5.629 3.01 0 5.825.823 8.258 2.236V14.687a7.18 7.18 0 0 1-3.287-1.365l-6.314 6.313c.194.404.311.85.311 1.326a3.1 3.1 0 0 1-3.097 3.097 3.1 3.1 0 0 1-3.097-3.097c0-.477.117-.923.31-1.327l-2.08-2.08c-.404.194-.849.311-1.326.311s-.923-.117-1.328-.31l-5.177 5.177c.194.404.311.849.311 1.326a3.1 3.1 0 0 1-3.097 3.097 3.1 3.1 0 0 1-3.097-3.097 3.1 3.1 0 0 1 3.097-3.097 3.07 3.07 0 0 1 1.328.31l5.177-5.177c-.194-.404-.311-.85-.311-1.326a3.1 3.1 0 0 1 3.097-3.097 3.1 3.1 0 0 1 3.097 3.097 3.07 3.07 0 0 1-.31 1.327l2.08 2.08c.404-.194.849-.311 1.326-.311s.923.117 1.328.311l6.313-6.313a7.22 7.22 0 0 1-1.143-2.255H2.065v37.161H31.02c.043-.7.121-1.39.249-2.064l.536-2.065zm14.647-9.238c-7.487.533-13.419 6.779-13.419 14.399a14.33 14.33 0 0 0 1.468 6.304l1.022 1.794c2.601 3.832 6.993 6.354 11.962 6.354s9.361-2.522 11.962-6.354l1.022-1.794a14.33 14.33 0 0 0 1.468-6.304c0-7.62-5.932-13.866-13.419-14.399h-2.065zm-2.065-12.44c0-.57-.463-1.032-1.032-1.032s-1.032.462-1.032 1.032.463 1.032 1.032 1.032 1.032-.462 1.032-1.032zm-7.226-7.226c-.569 0-1.032.462-1.032 1.032s.464 1.032 1.032 1.032 1.032-.462 1.032-1.032-.463-1.032-1.032-1.032zm-9.29 11.355c.569 0 1.032-.462 1.032-1.032s-.463-1.032-1.032-1.032-1.032.462-1.032 1.032.463 1.032 1.032 1.032z" fill="#7f8284"/><g clip-path="url(#B)"><path d="M52.708 44.485v-4.959a5.21 5.21 0 0 0-5.208-5.208 5.21 5.21 0 0 0-5.208 5.208v4.959c-1.903 1.527-3.125 3.869-3.125 6.499 0 4.602 3.731 8.333 8.333 8.333s8.333-3.731 8.333-8.333c0-2.63-1.222-4.972-3.125-6.499zm-8.333-4.959a3.13 3.13 0 0 1 3.125-3.125 3.13 3.13 0 0 1 3.125 3.125v3.736a8.29 8.29 0 0 0-6.25 0v-3.736zM47.5 57.234a6.26 6.26 0 0 1-6.25-6.25 6.26 6.26 0 0 1 6.25-6.25 6.26 6.26 0 0 1 6.25 6.25 6.26 6.26 0 0 1-6.25 6.25zm2.083-6.25c0 1.15-.933 2.083-2.083 2.083s-2.083-.933-2.083-2.083.933-2.083 2.083-2.083 2.083.933 2.083 2.083z" fill="#ff6b00"/></g><g fill="#7f8284"><path d="M5.193 43.317h16.554c.66 0 1.253-.606 1.253-1.327v-1.649c-.016-5.001-3.743-9.041-8.325-9.024h-2.411c-4.553-.011-8.253 4.009-8.264 8.98v1.694c-.003.724.529 1.316 1.193 1.327zm1.197-2.976c.003-3.54 2.631-6.411 5.874-6.415h2.411c3.24 0 5.935 2.878 5.935 6.415v.367H6.39v-.367zm7.11-11.024a6.5 6.5 0 1 0 0-13 6.5 6.5 0 1 0 0 13zm0-10.39a3.89 3.89 0 1 1 0 7.78 3.89 3.89 0 1 1 0-7.78z"/></g></g><defs><clipPath id="A"><path fill="#fff" transform="translate(0 .317)" d="M0 0h64v64H0z"/></clipPath><clipPath id="B"><path fill="#fff" transform="translate(35 34.317)" d="M0 0h25v25H0z"/></clipPath></defs></svg>
